X:95
T:Star above the Garter
M:6/8
K:G Major
"G"d2B BAG|"D"A3 ABA|"C"G2E c2B|"D"BAG ABc|
"G"d2B BAG|"D"A3 ABA|"C"GFE cGE|"D"DED D3:|
|:"D"d2e fga|gfe d2B|"C"G2B c2B|"G"BAG "D"A3|
"D"d2e fga|gfe d2B|"C"GAB cGE|"D"DED D3:|
